1-js/04-object-basics/03-garbage-collection/memory-user-john-lost.svg

<?xml version="1.0" encoding="UTF-8"?>
<svg width="225px" height="159px" viewBox="0 0 225 159" version="1.1" xmlns="http://www.w3.org/2000/svg" xmlns:xlink="http://www.w3.org/1999/xlink">
    <!-- Generator: sketchtool 55.2 (78181) - https://sketchapp.com -->
    <title>memory-user-john-lost.svg</title>
    <desc>Created with sketchtool.</desc>
    <g id="garbage-collection" stroke="none" stroke-width="1" fill="none" fill-rule="evenodd">
        <g id="memory-user-john-lost.svg">
            <rect id="Rectangle-4" stroke="#BCA68E" stroke-width="2" fill="#FFF9EB" x="61" y="89" width="118" height="48"></rect>
            <text id="name:-&quot;John&quot;" font-family="PTMono-Regular, PT Mono" font-size="12" font-weight="normal" fill="#8A704D">
                <tspan x="83" y="126">name: "John"</tspan>
            </text>
            <text id="Object-3" font-family="PTMono-Regular, PT Mono" font-size="14" font-weight="normal" fill="#8A704D">
                <tspan x="97" y="106">Object</tspan>
            </text>
            <rect id="Rectangle-1" stroke="#E8C48E" stroke-width="2" fill="#FFF9EB" x="65" y="4" width="104" height="42"></rect>
            <text id="user:-null" font-family="PTMono-Regular, PT Mono" font-size="14" font-weight="normal" fill="#8A704D">
                <tspan x="79" y="40">user: null</tspan>
            </text>
            <text id="&lt;global&gt;" font-family="PTMono-Regular, PT Mono" font-size="14" font-weight="normal" fill="#8A704D">
                <tspan x="86" y="23">&lt;global&gt;</tspan>
            </text>
            <rect id="Rectangle-5" stroke="#D0021B" stroke-width="2" x="47" y="69" width="154" height="86"></rect>
            <g id="noun_48910_cc" transform="translate(8.000000, 65.000000)">
                <path d="M17.5030263,1.75054945 L12.4969737,1.75054945 C12.3098684,1.75054945 12.1571053,1.90364835 12.1571053,2.09156044 L12.1571053,3.21745055 L17.8432895,3.21745055 L17.8432895,2.09156044 C17.8432895,1.90364835 17.6905263,1.75054945 17.5030263,1.75054945 L17.5030263,1.75054945 Z" id="Shape"></path>
                <path d="M28.3638158,3.21745055 L19.5896053,3.21745055 L19.5896053,2.09156044 C19.5896053,0.937978022 18.6540789,4.4408921e-16 17.5030263,4.4408921e-16 L12.4969737,4.4408921e-16 C11.3463158,4.4408921e-16 10.4103947,0.937978022 10.4103947,2.09156044 L10.4103947,3.21745055 L1.63657895,3.21745055 C0.9375,3.21745055 0.370657895,3.78514286 0.370657895,4.48575824 L0.370657895,4.57516484 C0.370657895,5.27578022 0.9375,5.84347253 1.63657895,5.84347253 L28.3638158,5.84347253 C29.0628947,5.84347253 29.6297368,5.27578022 29.6297368,4.57516484 L29.6297368,4.48575824 C29.6297368,3.78514286 29.0625,3.21745055 28.3638158,3.21745055 L28.3638158,3.21745055 Z M17.8432895,3.21745055 L12.1571053,3.21745055 L12.1571053,2.09156044 C12.1571053,1.90364835 12.3098684,1.75054945 12.4969737,1.75054945 L17.5034211,1.75054945 C17.6909211,1.75054945 17.8432895,1.90364835 17.8432895,2.09156044 L17.8432895,3.21745055 L17.8432895,3.21745055 Z" id="Shape" fill="#D0021B"></path>
                <path d="M26.0542105,6.28101099 L3.7275,6.28101099 C2.42960526,6.28101099 1.37723684,6.0567033 1.37723684,7.35784615 L3.13973684,33.195956 C3.13973684,34.4959121 4.1925,35.6047912 5.49039474,35.6047912 L24.2921053,35.6047912 C25.59,35.6047912 26.6423684,34.4959121 26.6423684,33.195956 L28.4048684,7.35784615 C28.4044737,6.0567033 27.3521053,6.28101099 26.0542105,6.28101099 L26.0542105,6.28101099 Z M9.63710526,32.1927033 C9.26013158,32.2053626 8.94552632,31.932 8.93289474,31.5807033 L8.23894737,11.664 C8.22671053,11.3127033 8.52236842,11.0171868 8.89815789,11.0041319 C9.27513158,10.9910769 9.58973684,11.2652308 9.60236842,11.6165275 L10.2963158,31.5332308 C10.3085526,31.8841319 10.0132895,32.180044 9.63710526,32.1927033 L9.63710526,32.1927033 Z M15.6809211,31.5632967 C15.6809211,31.9145934 15.3753947,32.1998242 14.9988158,32.1998242 C14.6222368,32.1998242 14.3167105,31.9141978 14.3167105,31.5632967 L14.3167105,11.6343297 C14.3167105,11.2826374 14.6222368,10.9978022 14.9988158,10.9978022 C15.3753947,10.9978022 15.6809211,11.2826374 15.6809211,11.6343297 L15.6809211,31.5632967 L15.6809211,31.5632967 Z M21.0651316,31.5810989 C21.0528947,31.9323956 20.7378947,32.2057582 20.3609211,32.1930989 C19.9847368,32.1804396 19.6894737,31.8845275 19.7017105,31.5332308 L20.3956579,11.6165275 C20.4078947,11.2652308 20.7225,10.9910769 21.0994737,11.0041319 C21.4756579,11.0175824 21.7713158,11.3127033 21.7590789,11.664 L21.0651316,31.5810989 L21.0651316,31.5810989 Z" id="Shape" fill="#D0021B"></path>
            </g>
        </g>
    </g>
</svg>

<svg xmlns="http://www.w3.org/2000/svg" width="225" height="159" viewBox="0 0 225 159"><defs><style>@import url(https://fonts.googleapis.com/css?family=Open+Sans:bold,italic,bolditalic%7CPT+Mono);@font-face{font-family:&apos;PT Mono&apos;;font-weight:700;font-style:normal;src:local(&apos;PT MonoBold&apos;),url(/font/PTMonoBold.woff2) format(&apos;woff2&apos;),url(/font/PTMonoBold.woff) format(&apos;woff&apos;),url(/font/PTMonoBold.ttf) format(&apos;truetype&apos;)}</style></defs><g id="garbage-collection" fill="none" fill-rule="evenodd" stroke="none" stroke-width="1"><g id="memory-user-john-lost.svg"><path id="Rectangle-4" fill="#FFF9EB" stroke="#BCA68E" stroke-width="2" d="M61 89h118v48H61z"/><text id="name:-&quot;John&quot;" fill="#8A704D" font-family="PTMono-Regular, PT Mono" font-size="12" font-weight="normal"><tspan x="83" y="126">name: &quot;John&quot;</tspan></text><text id="Object-3" fill="#8A704D" font-family="PTMono-Regular, PT Mono" font-size="14" font-weight="normal"><tspan x="97" y="106">Object</tspan></text><path id="Rectangle-1" fill="#FFF9EB" stroke="#E8C48E" stroke-width="2" d="M65 4h104v42H65z"/><text id="user:-null" fill="#8A704D" font-family="PTMono-Regular, PT Mono" font-size="14" font-weight="normal"><tspan x="79" y="40">user: null</tspan></text><text id="&lt;global&gt;" fill="#8A704D" font-family="PTMono-Regular, PT Mono" font-size="14" font-weight="normal"><tspan x="86" y="23">&lt;global&gt;</tspan></text><path id="Rectangle-5" stroke="#D0021B" stroke-width="2" d="M47 69h154v86H47z"/><g id="noun_48910_cc" transform="translate(8 65)"><path id="Shape" d="M17.503 1.75h-5.006a.341.341 0 00-.34.342v1.125h5.686V2.092a.341.341 0 00-.34-.341z"/><path id="Shape" fill="#D0021B" d="M28.364 3.217H19.59V2.092A2.09 2.09 0 0017.503 0h-5.006c-1.15 0-2.087.938-2.087 2.092v1.125H1.637c-.7 0-1.266.568-1.266 1.269v.09c0 .7.567 1.267 1.266 1.267h26.727c.699 0 1.266-.567 1.266-1.268v-.09c0-.7-.567-1.268-1.266-1.268zm-10.52 0h-5.687V2.092c0-.188.153-.341.34-.341h5.006a.34.34 0 01.34.34v1.126zM26.054 6.281H3.728c-1.298 0-2.35-.224-2.35 1.077L3.14 33.196c0 1.3 1.052 2.409 2.35 2.409h18.802c1.298 0 2.35-1.11 2.35-2.409l1.763-25.838c0-1.301-1.053-1.077-2.35-1.077zM9.637 32.193c-.377.012-.691-.261-.704-.612l-.694-19.917c-.012-.351.283-.647.66-.66.376-.013.69.261.703.613l.694 19.916c.013.351-.283.647-.659.66zm6.044-.63c0 .352-.306.637-.682.637-.377 0-.682-.286-.682-.637V11.634c0-.351.305-.636.682-.636.376 0 .682.285.682.636v19.93zm5.384.018c-.012.351-.327.625-.704.612-.376-.013-.672-.308-.66-.66l.695-19.916c.012-.352.326-.626.703-.613.377.014.672.309.66.66l-.694 19.917z"/></g></g></g></svg>
